X: 2266
T: TEDDY MALO'S JIG
R: Jig.
%R: jig
B: James Kerr "Merry Melodies" v.2 p.29 #266
Z: 2016 John Chambers <jc:trillian.mit.edu>
M: 6/8
L: 1/8
%%slurgraces yes
%%graceslurs yes
K: G
(uBc) |\
dBG dBG | ege dBG | cac BgB | cAG FED |\
dBG ecA | fdB gag | fed cAF | AGG G2 :|
|: G |\
G(gf) gag | =fde f3 | =F(=fe) fgf | edc dcA |\
G{a}gf gag | =fde f3 | cde =fcA | AGG G2 :|
